X:200
T:Spanish Jig
M:6/8
L:1/8
K:G
P:A
ABc|"G"d2d cBA|G3 ABc|d2e c2d|B2G ABc|d2d cBA|GAB c2B|"C"ABc "D"BAB|"G"G3:|
P:B
|:Bcd|"C"e2e edc|"G"B2G e2d|"C"c2B "D"ABc|"Em7"d3 Bcd|\
"C"e2e edc|"G"B2G e2d|"C"c2B "D"ABA|"G"G3:|
P:C
|:def|"C"g2B BAG|"D"A2G def|"C/E"g2B "D/F#"AGA|"G"G3 "D/F#"def|\
"Em7"g2B BAG|"D"A2G def|"C"g2B "D"AGA|"G"G3:|
T:Harmony Part
P:A
DEF|"G"G2G- .Gz D|G2G- .Gz D|G2G- .Gz D|G2G- .Gz D|
G2G- .Gz D|E2E- .Ez B,|1"C"CB,A, "D"D2D|"G"G,3:|2"C"CDE "D"DEF|"G"G3||
P:B
|:GAB|"C"c2c- .cz c|"G"B2B- .Bz B|"C"c2B "D"AGA|"Em7"B3 GAB|\
"C"c2c- .cz c|"G"B2B- .Bz B|"C"c2B "D"ABA|"G"G3:|
P:C
|:DEF|"C"G6-|"D"G6|"G"G3 "D"A3|"G"B2G "D"GAB|\
"C"c2c cBA|"D"G3 c3B|"C"A2G "D"FEF|"G"G3:|



%%newpage
%%textfont * 20
%%text 48J1 (2.0) p2
%%textfont * 12


